X: 13769
T: Form A Line
R: polka
M: 2/4
K: Edorian
|:E2 EF|ED E2|cA FE|DA AF|
E2 EF|ED E2|GF DC|A,2 A,2:|
|:ce ed|cB A2|Bc dB|Ad d2|
ce ed|cA B2|cA FE|D2 D2:|

